icons/glyphs/glyph-alert.svg

<?xml version="1.0" encoding="UTF-8" standalone="no"?><svg height="22" viewBox="0 0 5.8208332 5.8208335" width="22" xmlns="http://www.w3.org/2000/svg"><sodipodi:namedview/><metadata><rdf:RDF><cc:Work><dc:format>image/svg+xml</dc:format><dc:type/><dc:title/></cc:Work></rdf:RDF></metadata><path d="m2.8797399.3048923a.63861999.63861999 0 0 0 -.5224297.32010951l-2.2705604 3.93346709a.63861999.63861999 0 0 0 -.08660971.3062519.63861999.63861999 0 0 0  .63883328.6519981h4.54389243a.63861999.63861999 0 0 0  .5522237-.95825l-2.2698677-3.93346709a.63861999.63861999 0 0 0 -.5854819-.32010951zm.031179.8827262c.2480546 0 .47027.1998897.4475991.4469062l-.1815334 1.9781659c-.014119.1538324-.1185753.2674507-.266065.2674507-.1474895 0-.2526395-.1136186-.2667579-.2674507l-.1815341-1.9781659c-.022671-.2470165.2002374-.4469062.4482913-.4469062zm.00138 3.0645985a.34798336.34798336 0 0 1  .3478286.3478244.34798336.34798336 0 0 1 -.3478248.3485175.34798336.34798336 0 0 1 -.3485174-.3485175.34798336.34798336 0 0 1  .3485174-.3478244z" fill="#d0d0d0"/></svg>

<?xml version="1.0" encoding="UTF-8" standalone="no"?>
<!-- Created with Inkscape (http://www.inkscape.org/) -->

<svg
   xmlns:dc="http://purl.org/dc/elements/1.1/"
   xmlns:cc="http://creativecommons.org/ns#"
   xmlns:rdf="http://www.w3.org/1999/02/22-rdf-syntax-ns#"
   xmlns:svg="http://www.w3.org/2000/svg"
   xmlns="http://www.w3.org/2000/svg"
   xmlns:sodipodi="http://sodipodi.sourceforge.net/DTD/sodipodi-0.dtd"
   xmlns:inkscape="http://www.inkscape.org/namespaces/inkscape"
   width="22"
   height="22"
   viewBox="0 0 5.8208332 5.8208335"
   version="1.1"
   id="svg8"
   inkscape:version="0.92+devel 15703 custom"
   sodipodi:docname="glyph-alert.svg">
  <defs
     id="defs2">
    <style
       id="current-color-scheme">      .ColorScheme-Text {
        color:#d0d0d0;
        stop-color:#d0d0d0;
      }
      .ColorScheme-Background {
        color:#212121;
        stop-color:#212121;
      }
      .ColorScheme-Highlight {
        color:#0039a9;
        stop-color:#0039a9;
      }
      .ColorScheme-ViewText {
        color:#d0d0d0;
        stop-color:#d0d0d0;
      }
      .ColorScheme-ViewBackground {
        color:#19191b;
        stop-color:#19191b;
      }
      .ColorScheme-ViewHover {
        color:#005cc7;
        stop-color:#005cc7;
      }
      .ColorScheme-ViewFocus{
        color:#002466;
        stop-color:#002466;
      }
      .ColorScheme-ButtonText {
        color:#d0d0d0;
        stop-color:#d0d0d0;
      }
      .ColorScheme-ButtonBackground {
        color:#232323;
        stop-color:#232323;                             
      }                                                 
      .ColorScheme-ButtonHover {                        
        color:#005cc7;                                  
        stop-color:#005cc7;                             
      }                                                 
      .ColorScheme-ButtonFocus{                         
        color:#0039a9;                                  
        stop-color:#0039a9;                             
      }</style>
  </defs>
  <sodipodi:namedview
     id="base"
     pagecolor="#002466"
     bordercolor="#ffffff"
     borderopacity="0.29019608"
     inkscape:pageopacity="1"
     inkscape:pageshadow="2"
     inkscape:zoom="26.42008"
     inkscape:cx="11.123675"
     inkscape:cy="10.781302"
     inkscape:document-units="px"
     inkscape:current-layer="svg8"
     inkscape:document-rotation="0"
     showgrid="false"
     units="px"
     inkscape:showpageshadow="false"
     borderlayer="true"
     inkscape:window-width="1920"
     inkscape:window-height="1054"
     inkscape:window-x="0"
     inkscape:window-y="0"
     inkscape:window-maximized="1" />
  <metadata
     id="metadata5">
    <rdf:RDF>
      <cc:Work
         rdf:about="">
        <dc:format>image/svg+xml</dc:format>
        <dc:type
           rdf:resource="http://purl.org/dc/dcmitype/StillImage" />
        <dc:title></dc:title>
      </cc:Work>
    </rdf:RDF>
  </metadata>
  <path
     style="color:#000000;font-style:normal;font-variant:normal;font-weight:normal;font-stretch:normal;font-size:medium;line-height:normal;font-family:sans-serif;font-variant-ligatures:normal;font-variant-position:normal;font-variant-caps:normal;font-variant-numeric:normal;font-variant-alternates:normal;font-variant-east-asian:normal;font-feature-settings:normal;text-indent:0;text-align:start;text-decoration:none;text-decoration-line:none;text-decoration-style:solid;text-decoration-color:#000000;letter-spacing:normal;word-spacing:normal;text-transform:none;writing-mode:lr-tb;direction:ltr;text-orientation:mixed;dominant-baseline:auto;baseline-shift:baseline;text-anchor:start;white-space:normal;shape-padding:0;clip-rule:nonzero;display:inline;overflow:visible;visibility:visible;isolation:auto;mix-blend-mode:normal;color-interpolation:sRGB;color-interpolation-filters:linearRGB;solid-color:#000000;solid-opacity:1;vector-effect:none;fill:#d0d0d0;fill-opacity:1;fill-rule:nonzero;stroke:none;stroke-width:0.95249993;stroke-linecap:square;stroke-linejoin:round;stroke-miterlimit:4;stroke-dasharray:none;stroke-dashoffset:0;stroke-opacity:1;color-rendering:auto;image-rendering:auto;shape-rendering:auto;text-rendering:auto;enable-background:accumulate"
     d="M 2.8797399,0.3048923 A 0.63861999,0.63861999 0 0 0 2.3573102,0.62500181 L 0.0867498,4.5584689 A 0.63861999,0.63861999 0 0 0 1.4009036e-4,4.8647208 0.63861999,0.63861999 0 0 0 0.63897337,5.5167189 H 5.1828658 a 0.63861999,0.63861999 0 0 0 0.5522237,-0.95825 L 3.4652218,0.62500181 A 0.63861999,0.63861999 0 0 0 2.8797399,0.3048923 Z m 0.031179,0.8827262 c 0.2480546,0 0.47027,0.1998897 0.4475991,0.4469062 L 3.1769846,3.6126906 c -0.014119,0.1538324 -0.1185753,0.2674507 -0.266065,0.2674507 -0.1474895,0 -0.2526395,-0.1136186 -0.2667579,-0.2674507 L 2.4626276,1.6345247 C 2.4399566,1.3875082 2.662865,1.1876185 2.9109189,1.1876185 Z m 0.00138,3.0645985 A 0.34798336,0.34798336 0 0 1 3.2601275,4.6000414 0.34798336,0.34798336 0 0 1 2.9123027,4.9485589 0.34798336,0.34798336 0 0 1 2.5637853,4.6000414 0.34798336,0.34798336 0 0 1 2.9123027,4.252217 Z"
     id="path4277"
     inkscape:connector-curvature="0"
     inkscape:label="#" />
</svg>
